img/back.svg

<svg width="24" height="24" viewBox="0 0 24 24" fill="none" xmlns="http://www.w3.org/2000/svg">
<path d="M19.6025 13.3341H7.77019L12.3913 17.7098C12.9317 18.2435 12.9317 19.0795 12.3913 19.6131C11.8509 20.129 10.9565 20.129 10.4161 19.6131L3.3913 12.9427C2.86957 12.4447 2.86957 11.5553 3.3913 11.0573L10.4161 4.38688C10.9565 3.87104 11.8509 3.87104 12.3913 4.38688C12.6522 4.6537 12.8012 4.99344 12.8012 5.32963C12.8012 5.66759 12.6522 6.02335 12.3913 6.27237L7.77019 10.6659H19.6025C20.3851 10.6659 21 11.2529 21 12C21 12.7293 20.3851 13.3341 19.6025 13.3341Z" fill="#222222"/>
</svg>

<svg width="24" height="24" viewBox="0 0 24 24" fill="none" xmlns="http://www.w3.org/2000/svg"><path d="M19.602 13.334H7.77l4.621 4.376c.54.534.54 1.37 0 1.903a1.454 1.454 0 0 1-1.975 0l-7.025-6.67c-.521-.498-.521-1.388 0-1.886l7.025-6.67a1.454 1.454 0 0 1 1.975 0c.261.267.41.606.41.943 0 .338-.149.693-.41.942l-4.62 4.394h11.832c.782 0 1.397.587 1.397 1.334 0 .73-.615 1.334-1.398 1.334z" fill="#222"/></svg>
